svgs/sharp-light/wagon-covered.svg

<svg xmlns="http://www.w3.org/2000/svg" viewBox="0 0 640 512"><!--! Font Awesome Pro 6.6.0 by @fontawesome - https://fontawesome.com License - https://fontawesome.com/license (Commercial License) Copyright 2024 Fonticons, Inc. --><path d="M639.3 1.8L615.1 3.2 391.6 16 248.4 16 24.9 3.2 .7 1.8 9 24.7 81.2 224 80 224l-16 0 0 16 0 32 0 16 32 0 0-16 0-16 8 0 144 0 16 0 112 0 16 0 144 0 8 0 0 16 0 16 32 0 0-16 0-32 0-16-16 0-1.2 0L631 24.7l8.3-22.8zM524.8 224L408 224l0-176.9L592.7 36.6 524.8 224zM232 224l-116.8 0L47.3 36.6 232 47.1 232 224zM264 48l112 0 0 176-112 0 0-176zM176 512c56.4 0 103.1-41.7 110.9-96l66.3 0c7.8 54.3 54.4 96 110.9 96c61.9 0 112-50.1 112-112s-50.1-112-112-112c-56.4 0-103.1 41.7-110.9 96l-66.3 0c-7.8-54.3-54.4-96-110.9-96c-61.9 0-112 50.1-112 112s50.1 112 112 112zm16-33.6l0-62.4 62.4 0c-6.4 31.3-31.1 56-62.4 62.4zm-32 0c-31.3-6.4-56-31.1-62.4-62.4l62.4 0 0 62.4zM96 399.6l0 .8 0-.4 0-.4zM97.6 384c6.4-31.3 31.1-56 62.4-62.4l0 62.4-62.4 0zM192 321.6c31.3 6.4 56 31.1 62.4 62.4L192 384l0-62.4zM542.4 416c-6.4 31.3-31.1 56-62.4 62.4l0-62.4 62.4 0zM448 416l0 62.4c-31.3-6.4-56-31.1-62.4-62.4l62.4 0zm-64-16l0 .4 0-.8 0 .4zm64-16l-62.4 0c6.4-31.3 31.1-56 62.4-62.4l0 62.4zm32 0l0-62.4c31.3 6.4 56 31.1 62.4 62.4L480 384z"/></svg>

<svg xmlns="http://www.w3.org/2000/svg" viewBox="0 0 640 512"><!--! Font Awesome Pro 6.4.2 by @fontawesome - https://fontawesome.com License - https://fontawesome.com/license (Commercial License) Copyright 2023 Fonticons, Inc. --><path d="M639.3 1.8L615.1 3.2 391.6 16H248.4L24.9 3.2 .7 1.8 9 24.7 81.2 224H80 64v16 32 16H96V272 256h8H248h16l112 0h16H536l8 0v16 16h32V272 240 224H560h-1.2L631 24.7l8.3-22.8zM524.8 224H408V47.1L592.7 36.6 524.8 224zM232 224H115.2L47.3 36.6 232 47.1V224zM264 48H376V224H264V48zM176 512c56.4 0 103.1-41.7 110.9-96h66.3c7.8 54.3 54.4 96 110.9 96c61.9 0 112-50.1 112-112s-50.1-112-112-112c-56.4 0-103.1 41.7-110.9 96H286.9c-7.8-54.3-54.4-96-110.9-96c-61.9 0-112 50.1-112 112s50.1 112 112 112zm16-33.6V416h62.4c-6.4 31.3-31.1 56-62.4 62.4zm-32 0c-31.3-6.4-56-31.1-62.4-62.4H160v62.4zM96 399.6v.8l0-.4 0-.4zM97.6 384c6.4-31.3 31.1-56 62.4-62.4V384H97.6zM192 321.6c31.3 6.4 56 31.1 62.4 62.4H192V321.6zM542.4 416c-6.4 31.3-31.1 56-62.4 62.4V416h62.4zM448 416v62.4c-31.3-6.4-56-31.1-62.4-62.4H448zm-64-16l0 .4v-.8l0 .4zm64-16H385.6c6.4-31.3 31.1-56 62.4-62.4V384zm32 0V321.6c31.3 6.4 56 31.1 62.4 62.4H480z"/></svg>
